X:1
T: Captain Charles Gordon R.N. of Huntly
C:William Marshall
R:Strathspey
Q: 128
K:A
M:4/4
L:1/16
|:E2|AA3 A3A G3B G3E|AA3 A3A c3e c3A|((3d2e2f2) ((3e2d2c2) B4 G3E|FGAF GABG A4A4|
AA3 A3A G3B G3E|AA3 A3A c3e c3A|((3d2e2f2) ((3e2d2c2) B4 G3E|FGAF GABG A4A4|
((3c2e2a2) ((3e2c2A2) B4 G3E|((3c2e2a2) ((3e2c2G2) ((3A2f2e2) ((3c2B2A2) |((3d2e2f2) ((3e2d2c2) B4 G3E|FGAF GABG A4A4|
((3c2e2a2) ((3e2c2A2) B4 G3E|((3c2e2a2) ((3e2c2G2) ((3A2f2e2) ((3c2B2A2) |((3d2e2f2) ((3e2a2c2) B4 G3E|FGAF GABG A4A4:|
